styles/icons/minimize.svg

<?xml version="1.0" encoding="UTF-8"?>
<svg width="24px" height="24px" viewBox="0 0 24 24" version="1.1" xmlns="http://www.w3.org/2000/svg" xmlns:xlink="http://www.w3.org/1999/xlink">
    <!-- Generator: Sketch 46.2 (44496) - http://www.bohemiancoding.com/sketch -->
    <title>Icon/view/minimize</title>
    <desc>Created with Sketch.</desc>
    <defs>
        <path d="M5.5,5 L19.5,5 C19.7761424,5 20,5.22385763 20,5.5 L20,19.5 C20,19.7761424 19.7761424,20 19.5,20 L5.5,20 C5.22385763,20 5,19.7761424 5,19.5 L5,5.5 L5,5.5 C5,5.22385763 5.22385763,5 5.5,5 L5.5,5 Z M6,8 L6,19 L19,19 L19,8 L6,8 Z M15.8115964,17.4615751 L12.7202469,14.294483 C12.6621444,14.2340366 12.5828004,14.1999998 12.4999945,14.1999998 C12.4171887,14.1999998 12.3378447,14.2340366 12.2797422,14.294483 L9.18839271,17.4615751 C9.10082503,17.5530882 9.07571777,17.689649 9.12478728,17.807531 C9.17385679,17.9254131 9.28743058,18.0013796 9.41250916,17.9999808 L15.5952081,17.9999808 C15.7188818,17.9982008 15.8296149,17.921065 15.8767082,17.8038898 C15.9238016,17.6867146 15.8981887,17.552059 15.8115964,17.4615751 Z" id="path-1"></path>
    </defs>
    <g id="2.-Core" stroke="none" stroke-width="1" fill="none" fill-rule="evenodd">
        <g id="Core/Icons" transform="translate(-480.000000, -160.000000)">
            <g id="View" transform="translate(400.000000, 120.000000)">
                <g id="Icon/view/minimize" transform="translate(80.000000, 40.000000)">
                    <mask id="mask-2" fill="white">
                        <use xlink:href="#path-1"></use>
                    </mask>
                    <g id="Icon"></g>
                    <g id="Color/a-01-aaa" mask="url(#mask-2)" fill-rule="evenodd" fill="#333333">
                        <rect id="Rectangle" x="0" y="0" width="24" height="24"></rect>
                    </g>
                </g>
            </g>
        </g>
    </g>
</svg>

<svg fill="#333333" width="24" height="24" viewBox="0 0 24 24" xmlns="http://www.w3.org/2000/svg">
    <path d="M5.5,5h14C19.8,5,20,5.2,20,5.5v14c0,0.3-0.2,0.5-0.5,0.5h-14C5.2,20,5,19.8,5,19.5v-14l0,0C5,5.2,5.2,5,5.5,5L5.5,5z M6,8v11h13V8H6z M15.8,17.5l-3.1-3.2c-0.1-0.1-0.1-0.1-0.2-0.1c-0.1,0-0.2,0-0.2,0.1l-3.1,3.2c-0.1,0.1-0.1,0.2-0.1,0.3S9.3,18,9.4,18h6.2c0.1,0,0.2-0.1,0.3-0.2C15.9,17.7,15.9,17.6,15.8,17.5z"/>
</svg>
